X: 11133
T: Duke Of Perth, The
R: polka
M: 2/4
K: Gmajor
|:B|G/A/B/c/ dB|gB dB|gB dB|aA AB|
G/A/B/c/ dB|gB dB|cA d/c/B/A/|BG G:|
|:f|{g}g>a ge|{g}a>b af|{f}g>a ge|be ef|
{g}g>a ge|{g}a>b ag/f/|gd dc|BG G:|

